Obsidian/actions/22s/draw-halfcircle3.svg

<svg height="22" viewBox="0 0 22 22" width="22" xmlns="http://www.w3.org/2000/svg"><path d="m8.0058594 4.0019531c-3.8632 0-6.9960938 3.0703219-6.9960938 6.8574219-.02159997.0789 0 1.142578 0 1.142578h1.1660156.1230469 11.4179689.117187 1.166016v-1.142578c0-3.7871-3.130941-6.8574219-6.9941406-6.8574219z" fill="#bebebe" transform="translate(3 3)"/></svg>

<svg xmlns="http://www.w3.org/2000/svg" width="22" height="22" viewBox="0 0 22 22">
 <defs>
  <style id="current-color-scheme" type="text/css">
   .ColorScheme-Text { color:#bebebe; } .ColorScheme-Highlight { color:#4285f4; }
  </style>
 </defs>
 <path style="fill:currentColor" class="ColorScheme-Text" d="M 8.0058594 4.0019531 C 4.1426594 4.0019531 1.0097656 7.072275 1.0097656 10.859375 C 0.98816563 10.938275 1.0097656 12.001953 1.0097656 12.001953 L 2.1757812 12.001953 L 2.2988281 12.001953 L 13.716797 12.001953 L 13.833984 12.001953 L 15 12.001953 L 15 10.859375 C 15 7.072275 11.869059 4.0019531 8.0058594 4.0019531 z" transform="translate(3 3)"/>
</svg>
